images_elementary_svg/cmd/de/lc_bold.svg

<svg height="24" width="24" xmlns="http://www.w3.org/2000/svg" xmlns:xlink="http://www.w3.org/1999/xlink"><radialGradient id="a" cx="11.904744" cy="4.36105" gradientTransform="matrix(.01593237 2.9166493 -2.3215578 .01268165 23.839502 -31.91211)" gradientUnits="userSpaceOnUse" r="6.758298"><stop offset="0" stop-color="#737373"/><stop offset=".26238" stop-color="#636363"/><stop offset=".704952" stop-color="#4b4b4b"/><stop offset="1" stop-color="#3f3f3f"/></radialGradient><linearGradient id="b"><stop offset="0"/><stop offset="1" stop-opacity="0"/></linearGradient><linearGradient id="c" gradientUnits="userSpaceOnUse" x1="17" x2="17" y1="46.5" y2="43.5"><stop offset="0" stop-opacity="0"/><stop offset=".5"/><stop offset="1" stop-opacity="0"/></linearGradient><radialGradient id="d" cx="40" cy="43.5" gradientTransform="matrix(1 0 0 .75 -32.283838 12.375)" gradientUnits="userSpaceOnUse" r="2" xlink:href="#b"/><radialGradient id="e" cx="9" cy="43.5" gradientTransform="matrix(1 0 0 .75 -4 12.375)" gradientUnits="userSpaceOnUse" r="2" xlink:href="#b"/><g transform="matrix(.73633307 0 0 1 4.318335 -24)"><path d="m7.7161622 43.5v3h.5c.831 0 1.5-.669 1.5-1.5s-.669-1.5-1.5-1.5z" fill="url(#d)" opacity=".2"/><path d="m4.40625 43.5c-.7790625 0-1.40625.627187-1.40625 1.40625v.1875c0 .779063.6271875 1.40625 1.40625 1.40625h.59375v-3z" fill="url(#e)" opacity=".2"/><path d="m5 43.5h2.7161622v3h-2.7161622z" fill="url(#c)" opacity=".2"/></g><path d="m10.5 20.5h-3.0000001v-16.0010232l9.0000001.0010232v3l-6-.00102-.0039 4 5.002962.0018.0039 2.675037-5.002962-.0018z" fill="url(#a)" stroke="#0a0a0a" stroke-opacity=".6"/><path d="m7.5 4.4980469v1.5l9 .0019531.00029-1.5009331zm2.995878 7.0002001.0039 1.40605 5.004122.0018-.0039-1.406097z" fill="#fff" opacity=".2"/></svg>

<?xml version="1.0" encoding="UTF-8" standalone="no"?>
<svg
   xmlns:dc="http://purl.org/dc/elements/1.1/"
   xmlns:cc="http://creativecommons.org/ns#"
   xmlns:rdf="http://www.w3.org/1999/02/22-rdf-syntax-ns#"
   xmlns:svg="http://www.w3.org/2000/svg"
   xmlns="http://www.w3.org/2000/svg"
   xmlns:xlink="http://www.w3.org/1999/xlink"
   xmlns:sodipodi="http://sodipodi.sourceforge.net/DTD/sodipodi-0.dtd"
   xmlns:inkscape="http://www.inkscape.org/namespaces/inkscape"
   height="24"
   width="24"
   version="1.1"
   id="svg39"
   sodipodi:docname="lc_bold.svg"
   inkscape:version="0.92.4 (unknown)"
   inkscape:export-filename="/home/rizmut/Dokumen/Rizmut/Github/libreoffice-style-elementary/images_elementary/cmd/de/lc_bold.png"
   inkscape:export-xdpi="96"
   inkscape:export-ydpi="96">
  <metadata
     id="metadata45">
    <rdf:RDF>
      <cc:Work
         rdf:about="">
        <dc:format>image/svg+xml</dc:format>
        <dc:type
           rdf:resource="http://purl.org/dc/dcmitype/StillImage" />
        <dc:title />
      </cc:Work>
    </rdf:RDF>
  </metadata>
  <defs
     id="defs43">
    <radialGradient
       inkscape:collect="always"
       xlink:href="#c"
       id="radialGradient884"
       cx="11.904744"
       cy="4.3610497"
       fx="11.904744"
       fy="4.3610497"
       r="6.7582979"
       gradientTransform="matrix(0.01593237,2.9166493,-2.3215578,0.01268165,23.839502,-31.91211)"
       gradientUnits="userSpaceOnUse" />
  </defs>
  <sodipodi:namedview
     pagecolor="#ffffff"
     bordercolor="#666666"
     borderopacity="1"
     objecttolerance="10"
     gridtolerance="10"
     guidetolerance="10"
     inkscape:pageopacity="0"
     inkscape:pageshadow="2"
     inkscape:window-width="1366"
     inkscape:window-height="714"
     id="namedview41"
     showgrid="true"
     inkscape:snap-global="true"
     inkscape:zoom="45.254834"
     inkscape:cx="13.342644"
     inkscape:cy="11.824954"
     inkscape:window-x="0"
     inkscape:window-y="28"
     inkscape:window-maximized="1"
     inkscape:current-layer="svg39">
    <inkscape:grid
       type="xygrid"
       id="grid852" />
  </sodipodi:namedview>
  <linearGradient
     id="a">
    <stop
       offset="0"
       id="stop2" />
    <stop
       offset="1"
       stop-opacity="0"
       id="stop4" />
  </linearGradient>
  <linearGradient
     id="b"
     gradientUnits="userSpaceOnUse"
     x1="17"
     x2="17"
     y1="46.5"
     y2="43.5">
    <stop
       offset="0"
       stop-opacity="0"
       id="stop7" />
    <stop
       offset=".5"
       id="stop9" />
    <stop
       offset="1"
       stop-opacity="0"
       id="stop11" />
  </linearGradient>
  <radialGradient
     id="c"
     cx="13.325464"
     cy="8.331412"
     gradientTransform="matrix(-3.7117719,0.11187051,-0.21033005,-6.7825606,47.356407,56.934853)"
     gradientUnits="userSpaceOnUse"
     r="5.349211">
    <stop
       offset="0"
       stop-color="#737373"
       id="stop14" />
    <stop
       offset=".26238"
       stop-color="#636363"
       id="stop16" />
    <stop
       offset=".704952"
       stop-color="#4b4b4b"
       id="stop18" />
    <stop
       offset="1"
       stop-color="#3f3f3f"
       id="stop20" />
  </radialGradient>
  <radialGradient
     id="d"
     cx="40"
     cy="43.5"
     gradientTransform="matrix(1,0,0,0.75,-32.283838,12.375)"
     gradientUnits="userSpaceOnUse"
     r="2"
     xlink:href="#a" />
  <radialGradient
     id="e"
     cx="9"
     cy="43.5"
     gradientTransform="matrix(1,0,0,0.75,-4,12.375)"
     gradientUnits="userSpaceOnUse"
     r="2"
     xlink:href="#a" />
  <g
     transform="matrix(0.73633307,0,0,1,4.3183346,-24)"
     id="g31">
    <path
       d="m 7.7161622,43.5 v 3 h 0.5 c 0.831,0 1.5,-0.669 1.5,-1.5 0,-0.831 -0.669,-1.5 -1.5,-1.5 z"
       id="path25"
       style="opacity:0.2;fill:url(#d)"
       inkscape:connector-curvature="0" />
    <path
       d="M 4.40625,43.5 C 3.6271875,43.5 3,44.127187 3,44.90625 v 0.1875 C 3,45.872813 3.6271875,46.5 4.40625,46.5 H 5 v -3 z"
       id="path27"
       style="opacity:0.2;fill:url(#e)"
       inkscape:connector-curvature="0" />
    <path
       d="m 5,43.5 h 2.7161622 v 3 H 5 Z"
       id="path29"
       style="opacity:0.2;fill:url(#b)"
       inkscape:connector-curvature="0"
       sodipodi:nodetypes="ccccc" />
  </g>
  <g
     aria-label="F"
     style="font-style:normal;font-weight:normal;font-size:22.41456604px;line-height:1.25;font-family:sans-serif;letter-spacing:0px;word-spacing:0px;fill:url(#radialGradient884);fill-opacity:1;stroke:#0a0a0a;stroke-width:1;stroke-miterlimit:4;stroke-dasharray:none;stroke-opacity:0.6"
     id="text856">
    <path
       d="M 10.5,20.5 H 7.4999999 V 4.4989768 L 16.5,4.5 v 3 l -6,-0.00102 -0.0039,4 5.002962,0.0018 0.0039,2.675037 L 10.5,14.174017 Z"
       style="font-style:normal;font-variant:normal;font-weight:bold;font-stretch:normal;font-family:'Droid Sans';-inkscape-font-specification:'Droid Sans Bold';fill:url(#radialGradient884);fill-opacity:1;stroke:#0a0a0a;stroke-width:1;stroke-miterlimit:4;stroke-dasharray:none;stroke-opacity:0.6"
       id="path836"
       inkscape:connector-curvature="0"
       sodipodi:nodetypes="ccccccccccc" />
  </g>
  <path
     style="font-style:normal;font-weight:normal;font-size:22.41456604px;line-height:1.25;font-family:sans-serif;letter-spacing:0px;word-spacing:0px;opacity:0.2;fill:#ffffff;fill-opacity:1;stroke:none;stroke-width:0.56036413;stroke-opacity:1"
     d="m 7.5,4.4980469 v 1.5 L 16.5,6 16.50029,4.4990669 Z m 2.995878,7.0002001 0.0039,1.40605 5.004122,0.0018 L 15.5,11.5 Z"
     id="text1033"
     inkscape:connector-curvature="0"
     sodipodi:nodetypes="cccccccccc" />
</svg>
